X:1
T:Phyllis, farewell a 6 - Bateson
T:James Gibb editions
T:#
%%score 1 2 { 3 | 4 } 5
L:1/8
Q:1/4=108
M:4/4
K:Bb
V:1 treble nm="Soprano I"
V:2 treble nm="Soprano II"
V:3 treble nm="Alto I" snm="A"
V:4 treble 
V:5 treble-8 nm="Tenor" snm="T"
V:1
"^Phyllis, farewell a 6""^Thomas Bateson\n (1575-1630)"!p! f4 c2 e2 | d4 z2 f2 | e2 d2 c2 c2 | %3
w: Phyl- lis, fare-|well, I|may no long- er|
 B2 B2 B2 A2 | B2 f2 e2 d2 |[M:4/4] c2 c2 d2 d2 | e2 c2 B4 | z8 | z2"^cresc." f2 e2 d2 | %9
w: live, no long- er|live, I may no|long- er live, no|long- er live,||I may no|
 c2 c2 d2!f! d2 | c2 B2 B2 A2 | B8 | z8 |!p! f8- | f4 e2 d2 | c3 d c2 B2 | A4 z2 (cd) | %17
w: long- er live, I|may no long- er|live;||Yet|* if I|die, yet if I|die, fair *|
 e3 B d2 c2 | B8 | z4 z2 f2 | g3 d e2 d2 | B4 z4 | z4 z2 f2 | g3 d f3 e | d4 z2!mf! d2 | c6 B2 | %26
w: Phyl- lis, I for-|give,|fair|Phyl- lis, I for-|give,|fair|Phyl- lis, I for-|give, I|live too|
 A4 f4 | e4 d4 | c4 z2!p! B2 | c2 e2 d2 d2 | c2 d2 e3 f | g2 f2 f2 z2 | z2 c2 d2 f2 | f2 =e2 f4 | %34
w: long, I|live too|long; come,|gen- tle death, and|end, come, gen- tle|death, and end,|come, gen- tle|death, and end,|
 z4 z2 c2 | c3 B A2 G2 | F8 | z8 | z8 | z2 f2 e2 c2 | e3 e d2 (cB) | A2 B2 c4 | z8 | z8 | %44
w: come,|gen- tle death, and|end|||My end- less|tor- ment, or my *|grief a- mend,|||
 z2 f2 d2 B2 | e3 d c2 B2 | B2 A2 B4 | z8 | z2 f2 f3 e | d4 d2 e2 | f4 d4 | c4 z4 | z8 | %53
w: my end- less|tor- ment, or my|grief a- mend,||my grief a-|mend, or my|grief a-|mend,||
 f2 e2 (d4- | d4 c2) B2 | c8 | z8 | d2 e2 f4- | f4[Q:1/4=106] e2[Q:1/4=104] d2 | %59
w: or my grief|* * a-|mend,||or my grief,|* or my|
[Q:1/4=102] (c3[Q:1/4=100] B)[Q:1/4=97] c4 |[Q:1/4=96] B16 |] %61
w: grief * a-|mend.|
V:2
 z8 | z8 | z4 z2!p! f2 | d2 f2 e4- | e2 d2 c2 B2 |[M:4/4] B2 A2 B4 | z4 z2 f2 | e2 d2 c2 c2 | %8
w: ||Phyl-|lis, fare- well,|* I may no|long- er live,|I|may no long- er|
 B2"^cresc." d2 c2 B2 | B2 A2 B2!f! f2 | e2 d2 c2 c2 | d4!p! d4- | d4 c2 B2 | A6 B2 | c6 (de | %15
w: live, I may no|long- er live, I|may no long- er|live; Yet|* if I|die, yet|if I *|
 f8) | f8 | z8 | z2 d2 e3 B | d2 c2 B4- | B4 z2 f2 | g2 d2 f2 d2 | (c3 d e2) d2 | e3 B c2 c2 | %24
w: |die,||fair Phyl- lis,|I for- give,|* fair|Phyl- lis, I for-|give, * * fair|Phyl- lis, I for-|
 B4 z2!mf! f2 | f4 =e4 | f4 z2 d2 | c4 B4 | A4 z4 | z8 | z2!p! B2 c2 e2 | e2 d2 c2 (Bc) | %32
w: give; I|live too|long, I|live too|long;||come, gen- tle|death, and end, come, *|
 (de) f2 f2 d2 | c4 z4 | z2 d2 e2 g2 | (g2 f4) =e2 | f4 z2 c2 | c2 d2 _e4 | B2 d4 c2 | (Bc) d2 c4 | %40
w: gen\- * tle death, and|end,|come, gen- tle|death, * and|end My|end- less tor-|ment, or my|grief * a- mend,|
 z8 | z2 f2 e2 c2 | d3 d c2 B2 | (e4 d2) c2 | d8 | z8 | z2 f2 e2 d2 | g3 f e3 d | (c2 B2) c4 | B8 | %50
w: |my end- less|tor- ment, or my|grief * a-|mend,||my end- less|tor- ment, or my|grief * a-|mend,|
 z8 | z4 d2 e2 | f4 c4 | B4 z2 de | f6 (ed) | c4 c2 d2 | e4 d2 e2 | f6 e2 | d4 c2 B2 | f6 e2 | %60
w: |or my|grief a-|mend, or my|grief a\- *|mend, or my|grief, or my|grief a-|mend, or my|grief a-|
 d16 |] %61
w: mend,|
V:3
 z8 |!p! B4 F2 _A2 | G2 B2 B2 =A2 | B2 F2 G2 (EF) | G3 D E2 F2 |[M:4/4] G2 F2 F4 | z4 F4 | %7
w: |Phyl- lis, fare-|well, I may no|long- er live, I *|may no long- er,|long- er live,|I|
 G3 F F3 E | D4 z4 | z4 z2!f! D2 | E2 F2 E2 C2 | F8 | z8 | z8 |!p! F8- | F4 E2 D2 | %16
w: may no long- er|live,|I|may no long- er|live;|||Yet|* if I|
 (C3 B, A,2) F2 | G2 B2 B2 A2 | B8 | z4 z2 F2 | E2 D2 C2 (B,_A, | G,_A, B,2) B,4 | z4 z2 F2 | %23
w: die, * * fair|Phyl- lis, I for-|give,|fair|Phyl- lis, I for\- *|* * * give,|fair|
 (EF) G2 C2 F2 | F4 z2!mf! (FG) | (A2 B2) c4 | c4 z4 | z8 | z8 | z4 z2!p! F2 | E2 D2 C2 C2 | %31
w: Phyl\- * lis, I for-|give; I *|live * too|long;|||come,|gen- tle death, and|
 B,2 F2 F2 (G_A) | B2 =A2 B4 | z2 G2 A2 c2 | c2 =B2 c2 G2 | G2 (A_B) c3 B | A4 z2 A2 | A2 B2 c4 | %38
w: end, come gen- tle *|death, and end,|come, gen- tle|death, and end, come,|gen- tle * death, and|end My|end- less tor-|
 G2 B4 (_AG) | F3 F G2 =A2 | B8 | z2 F2 G2 A2 | B3 _A G3 F | G=A B4 A2 | B4 F2 D2 | B,2 E4 D2 | %46
w: ment, or my *|grief, my grief a-|mend,|my end- less|tor- ment, or my|grief, my grief a-|mend, my end-|less tor- ment,|
 C2 C2 B,2 G,2 | G,6 B,2 | F6 F2 | F8 | z4 F2 G2 | A4 (B4- | B4 A4) | B8 | z4 F2 G2 | _A6 (GF) | %56
w: or my grief a-|mend, my|grief a-|mend,|or my|grief a\-||mend,|or my|grief a\- *|
 G2 _A2 B4- | B4 (=A2 G2) | F8 | z4 F4 | F16 |] %61
w: mend, my grief|* a\- *|mend,|a-|mend.|
V:4
 z8 | z8 | z4!p! F4 | B,2 D2 C4 | z2 B,2 C2 D2 |[M:4/4] E2 C2 B,2 B,2 | B,2 A,2 B,4 | z8 | %8
w: ||Phyl-|lis, fare- well,|I may no|long- er live, no|long- er live,||
 z2"^cresc." B,2 C2 D2 | E2 F2 B,4 | z2!f! D2 G2 (FE) | D8 |!p! F8- | F4 E2 D2 | C6 B,2 | A,6 B,2 | %16
w: I may no|long- er live,|no long- er *|live;|Yet|* if I|die, yet|if I|
 C4 F4 | E2 G2 F2 F2 | B,2 F2 G2 B2 | B2 A2 B4 | z4 z2 F2 | E2 (DC) B,2 F2 | F4 z2 B2 | GA B4 A2 | %24
w: die, fair|Phyl- lis, I for-|give, fair Phyl- lis,|I for- give,|fair|Phyl- lis * I for-|give, fair|Phyl- lis, I for-|
 B4 z2!mf! B2 | A4 G4 | F6 G2 | A4 B4 | F4 z4 | z4!p! F4 | G2 B2 B2 A2 | B4 z4 | z4 z2 B2 | %33
w: give; I|live too|long, I|live too|long;|come,|gen- tle death, and|end,|come,|
 _A2 G2 F2 A2 | G3 F E3 D | C4 z2 c2 | c4 F4 | F2 D2 C4 | E2 B,4 C2 | D4 (E2 F2) | B,4 z4 | %41
w: gen- tle death, and|end, come, gen- tle|death, and|end My|end- less tor-|ment, or my|grief a\- *|mend,|
 z4 z2 F2 | D2 B,2 E3 D | C2 (B,C) (DE) F2 | F8 | z8 | z4 z2 B2 | G2 E2 c3 B | A2 B2 B2 A2 | %49
w: my|end- less tor- ment,|or my * grief * a-|mend,||my|end- less tor- ment,|or my grief a-|
 B4 B,2 C2 | D4 B,4 | F4 F2 E2 | D4 C4 | D2 E2 F4- | F4 F4 | F8 | E2 F2 G4 | z4 F2 G2 | A2 F2 B4- | %59
w: mend, or my|grief a-|mend, or my|grief a-|mend, my grief|* a-|mend,|or my grief,|or my|grief, my grief|
 B4 A4 | B16 |] %61
w: * a-|mend.|
V:5
 z8 | z8 | z8 | z8 | z8 |[M:4/4][K:treble-8] z2!p! f2 d2 f2 | e6 d2 | c2 B2 B2 A2 | B4 z4 | z8 | %10
w: |||||Phyl- lis, fare-|well, I|may no long- er|live,||
 z2!f! B2 c2 c2 | B8 |!p! d8- | d4 c2 B2 | A6 B2 | c6 (de) | f8 | z8 | z2 B2 e2 g2 | f2 f2 B4- | %20
w: no long- er|live;|Yet|* if I|die, yet|if I *|die,||fair Phyl- lis,|I for- give,|
 B4 z2 F2 | B3 c d2 B2 | (A3 B c2) d2 | c2 B2 f2 c2 | d4!mf! f4 | c4 c4 | c4 z4 | z8 | %28
w: * fair|Phyl- lis, I for-|give, * * fair|Phyl- lis, I for-|give; I|live too|long;||
 z2!p! f2 e2 d2 | c2 c2 B4 | z8 | z2 B2 c2 e2 | d2 c2 B3 f | c4 z2 f2 | e2 d2 c4- | c4 c4 | c8 | %37
w: come, gen- tle|death, and end,||come, gen- tle|death, and end, and|end, come,|gen- tle death,|* and|end|
 z8 | z8 | z8 | z2 B2 d2 e2 | f2 d2 c2 c2 | B2 B2 E4- | E2 E2 F3 F | B8 | z4 z2 f2 | f2 c2 e2 B2 | %47
w: |||My end- less|tor- ment, or my|grief a- mend,|* my grief a-|mend,|my|end- less tor- ment,|
 c2 B2 (e4- | e2 d2) c4 | B8 | z8 | z4 B2 c2 | d2 e2 f4 | B3 c d3 c | B4 z4 | z8 | z4 B2 c2 | %57
w: or my grief|* * a-|mend,||or my|grief a- mend,|or my grief a-|mend,||or my|
 (d4 c2) B2 | d3 e (f4- | f2 ed) c4 | d16 |] %61
w: grief * a-|mend, my grief|* * * a-|mend.|

